X: 4
T: Thunderhead
R: jig
M: 6/8
L: 1/8
K: Bmin
|B3 fBB|eBB dBA|B3 f3|edB ABd|
B3 fBB|eBB def|gfe f3|edB ABd:||
|:afd edB|ABd c3|Bcd c3|dcB c3|
afd edB|ABd c3|Bcd cea|1gec dfg:|2gec dc=c||


Tune 732	Setting 13804

